!!!!SEGMENT: pl-gd--ee-1638--002-028_marenzio-luca--motettorum-pro-festis-totius-anni-in-festo-omnium-sanctorum-o-quam-gloriosum-est-regnum.krn
!!!cenid: 15xx:1031
!!!COM: Marenzio, Luca
!!!COM-rismID: pe30003955
!!!CDT: ~1553-1599/08/22
!!!CNT: Italian
!!!GTL: Motettorum pro festis totius anni
!!!OTL: In festo omnium Sanctorum/O quam gloriosum est regnum
!!!OMV: 028
!!!PDT: 1588
!!!AGN:
!!!YEC: Copyright 2022 Narodowy Instytut Fryderyka Chopina (https://polishscores.org)
!!!YEM: License CC-BY-4.0 (https://creativecommons.org/licenses/by/4.0)
!!!SMS-siglum: PL-GD
!!!SMS-shelfmark: Ee 1638
!!!SMS-variant:
!!!SMS-altvar:
!!!SMS-shelfwork: 002-028 G
!!!NIFC-rismSourceID: 1001202747
!!!NIFC-rismChildID: 990039238
!!!NIFC-islandoraID: pl-gd:57883
!!!URL-pdf-islandora: https://repozytorium.nifc.pl/islandora/object/pl-gd%3A57883/datastream/PDF/view
!!!URL-scan: https://polish.musicsources.pl/pl/lokalizacje/galeria/klocki-introligatorskie/655 @EN{Scan on Polish Music Sources Website} @PL{Skany w portalu Dziedzictwo Muzyki Polskiej w otwartym dostępie}
!!!IIIF: https://repozytorium.nifc.pl/islandora/object/pl-gd%3A57883/datastream/IIIF/view
!!!ONB-nifc: UWAGA: Cantus: s. 630 (lewa), Altus: s. 478 (lewa), Tenor: s. 326 (lewa), Bassus: s. 174 (lewa)
!!!AIN: 1 alto 1 bass 1 soprn 1 tenor
!!!key: F
**kern	**text	**kern	**text	**kern	**text	**kern	**text
*part4	*part4	*part3	*part3	*part2	*part2	*part1	*part1
*staff4	*staff4	*staff3	*staff3	*staff2	*staff2	*staff1	*staff1
*ICvox	*	*ICvox	*	*ICvox	*	*ICvox	*
*Ibass	*	*Itenor	*	*Ialto	*	*Isoprn	*
*I"BASSVS	*	*I"TENOR	*	*I"ALTVS	*	*I"CANTVS	*
*mI"Basso	*	*mI"Tenore	*	*mI"Alto	*	*mI"Soprano	*
*I'B	*	*I'T	*	*I'A	*	*I'S	*
*clefF3	*	*clefC3	*	*clefC2	*	*clefG2	*
*mclefF4	*	*mclefGv2	*	*mclefG2	*	*	*
*k[b-]	*	*k[b-]	*	*k[b-]	*	*k[b-]	*
*F:	*	*F:	*	*F:	*	*F:	*
*M2/1	*	*M2/1	*	*M2/1	*	*M2/1	*
*met(C)	*	*met(C)	*	*met(C)	*	*met(C)	*
*mmet(c)	*	*mmet(c)	*	*mmet(c)	*	*mmet(c)	*
=1-	=1-	=1-	=1-	=1-	=1-	=1-	=1-
*xywh-#174:1059,550,3450,840	*	*xywh-#326:1123,423,3380,960	*	*xywh-#478:982,548,3440,846	*	*xywh-#630:1095,504,3400,854	*
!LO:TX:t=P:problem=przy kluczu BB- B-	!	!	!	!LO:TX:t=P:problem=przy kluczu B- b-	!	!	!
!LO:TX:a:i:mod= :t=In feſto omnium Sanctorum	!	!LO:TX:a:i:mod= :t=In feſto omnium Sanctorum	!	!LO:TX:a:i:mod= :t=In feſto omnium Sanctorum	!	!LO:TX:a:i:mod= :t=In feſto omnium Sanctorum	!
0F	O	0f	O	0a	O	0cc	O
=2-	=2-	=2-	=2-	=2-	=2-	=2-	=2-
!	!LO:SIC:s=quam	!	!LO:SIC:s=quam	!	!LO:SIC:s=quam	!	!LO:SIC:s=quam
1F	Qua(m)	2c/	Quam	1a	Quam	1cc	Qua(m)
.	.	1f	glo-	.	.	.	.
1.c	glo-	.	.	1.g	glo-	1.cc	glo-
.	.	4e\	.	.	.	.	.
.	.	4d\	.	.	.	.	.
=3-	=3-	=3-	=3-	=3-	=3-	=3-	=3-
.	.	2e\	.	.	.	.	.
2F/	-ri-	2f\	-ri-	2a\	-ri-	2cc\	-ri-
1B-	-o-	1f	-o-	1b-	-o-	1dd	-o-
=4-	=4-	=4-	=4-	=4-	=4-	=4-	=4-
2F/	-ſum	2f\	-ſum	2a\	-ſum	2cc\	-ſum
2F/	eſt	2f\	eſt	2a\	eſt	2cc\	eſt
0G	reg-	0d	reg-	0g	reg-	0b-	reg-
=5-	=5-	=5-	=5-	=5-	=5-	=5-	=5-
.	.	.	.	.	.	.	.
!	!LO:SIC:s=-num	!	!LO:SIC:s=-num	!	!LO:SIC:s=-num	!	!LO:SIC:s=-num
2D/	-nu(m)	1d	-nu(m)	2.f\	-nu(m)	2a/	-nu(m)
2d\	in	.	.	.	.	2dd\	in
.	.	.	.	4g\	.	.	.
=6-	=6-	=6-	=6-	=6-	=6-	=6-	=6-
2d\	quo	0r	.	2a\	.	2ff\	quo
!	!	!	!	!	!	!	!LO:SIC:s=cum
2d\	cum	.	.	2f\	in	2ff\	cu(m)
1c	Chri-	.	.	2g\	quo	1ee-X	Chri-
.	.	.	.	2a\	cum	.	.
=7-	=7-	=7-	=7-	=7-	=7-	=7-	=7-
1B-	-ſto	2r	.	4b-\	Chri-	2dd\	-ſto
.	.	.	.	8a\	.	.	.
.	.	.	.	8g\	.	.	.
*	*	*	*	*custos:f	*	*	*
*	*	*	*	*xywh-#478:1006,1238,3393,689	*	*	*
!	!	!	!	!LO:LB:g=original	!	!	!
.	.	2d\	in	4f\	.	2.ff\	gau-
.	.	.	.	4g\	.	.	.
*custos:D	*	*	*	*	*	*	*
*xywh-#174:1075,1242,3473,668	*	*	*	*	*	*	*
!LO:LB:g=original	!	!	!	!	!	!	!
1r	.	2f\	quo	1a	.	.	.
.	.	.	.	.	.	8eeny\	.
.	.	.	.	.	.	8dd\	.
*	*	*custos:f	*	*	*	*custos:cc	*
*	*	*xywh-#326:1116,1083,3388,814	*	*	*	*xywh-#630:1111,1172,3385,722	*
!	!	!LO:LB:g=original	!	!	!	!LO:LB:g=original	!
.	.	2f\	cum	.	.	4cc\	.
.	.	.	.	.	.	4dd\	.
=8-	=8-	=8-	=8-	=8-	=8-	=8-	=8-
1r	.	1e-X	Chri-	2.b-\	-ſto	4g/	.
.	.	.	.	.	.	4a/	.
.	.	.	.	.	.	4b-/	.
.	.	.	.	8a\	.	4cc\	.
.	.	.	.	8g\	.	.	.
*	*	*	*	*	*	*lig	*
2r	.	2d\	-ſto	2f\	.	1dd	.
2D/	in	2.f\	gau-	2a\	in	.	.
=9-	=9-	=9-	=9-	=9-	=9-	=9-	=9-
*	*	*	*	*	*	*col	*
2F/	quo	.	.	2a\	quo	2.cc\	.
.	.	8eny\	.	.	.	.	.
.	.	8d\	.	.	.	.	.
!	!LO:SIC:s=cum	!	!	!	!LO:SIC:s=cum	!	!
2F/	cu(m)	4c/	.	2a\	cu(m)	.	.
*	*	*	*	*	*	*Xlig	*
.	.	4B-/	.	.	.	4a/	.
*	*	*	*	*	*	*Xcol	*
1E-X	Chri-	4G/	.	1g	Chri-	2b-/	.
.	.	4A/	.	.	.	.	.
.	.	4B-/	.	.	.	2g/	-dent
.	.	4c/	.	.	.	.	.
=10-	=10-	=10-	=10-	=10-	=10-	=10-	=10-
2D/	-ſto	4d\	.	1f	-ſto	2r	.
.	.	4e\	.	.	.	.	.
2.d\	gau-	4f\	.	.	.	2dd\	in
.	.	4g\	.	.	.	.	.
.	.	1a	.	1r	.	2ff\	quo
8c\	.	.	.	.	.	.	.
8B-\	.	.	.	.	.	.	.
!	!	!	!	!	!	!	!LO:SIC:s=cum
4A\	.	.	.	.	.	2ff\	cu(m)
4B-\	.	.	.	.	.	.	.
=11-	=11-	=11-	=11-	=11-	=11-	=11-	=11-
1c	.	1g	-dent	2r	.	1ee-X	Chri-
.	.	.	.	2g\	in	.	.
1G	-dent	2r	.	2b-\	quo	2dd\	-ſto
.	.	2d\	in	2b-\	cum	2.dd\	gau-
=12-	=12-	=12-	=12-	=12-	=12-	=12-	=12-
0r	.	2f\	quo	1a	Chri-	.	.
.	.	.	.	.	.	8cc\	.
.	.	.	.	.	.	8b-\	.
!	!	!	!LO:SIC:s=cum	!	!	!	!
.	.	2f\	cu(m)	.	.	4a/	.
.	.	.	.	.	.	4b-/	.
.	.	1e-X	Chri-	2g\	-ſto	2cc\	.
!	!	!	!	!	!	!LO:SIC:s=2g	!
.	.	.	.	2.b-\	gau-	2a/	-dent
=13-	=13-	=13-	=13-	=13-	=13-	=13-	=13-
2r	.	1d	-ſto	.	.	2r	.
.	.	.	.	8a\	.	.	.
.	.	.	.	8g\	.	.	.
*	*ij	*	*	*custos:a	*	*	*ij
*	*	*	*	*xywh-#478:1013,1763,3401,705	*	*	*
!	!	!	!	!LO:LB:g=original	!	!	!
2d\	in	.	.	4a\	.	2dd\	in
.	.	.	.	4b-\	.	.	.
*	*	*custos:a	*	*lig	*	*custos:ff	*
*	*	*xywh-#326:1077,1644,3411,760	*	*	*	*xywh-#630:1095,1731,3385,706	*
!	!	!LO:LB:g=original	!	!	!	!LO:LB:g=original	!
2d\	quo	2r	.	1f	.	2ff\	quo
!	!LO:SIC:s=cum	!	!	!	!	!	!LO:SIC:s=cum
2d\	cu(m)	2.a\	gau-	.	.	2ff\	cu(m)
=14-	=14-	=14-	=14-	=14-	=14-	=14-	=14-
1c	Chri-	.	.	1cc	.	1ee-X	Chri-
.	.	8g\	.	.	.	.	.
.	.	8f\	.	.	.	.	.
.	.	4g\	.	.	.	.	.
.	.	4a\	.	.	.	.	.
*	*	*	*	*Xlig	*	*	*
2B-\	-ſto	2.d\	.	2.f\	-dent	2dd\	-ſto
*custos:d	*	*	*	*	*	*	*
*xywh-#174:1028,1760,3489,707	*	*	*	*	*	*	*
!LO:LB:g=original	!	!	!	!	!	!	!
2.d\	gau-	.	.	.	.	2.ff\	gau-
.	.	4eny\	.	4g\	.	.	.
=15-	=15-	=15-	=15-	=15-	=15-	=15-	=15-
.	.	4f\	.	1a	.	.	.
8c\	.	4g\	.	.	.	8eeny\	.
8B-\	.	.	.	.	.	8dd\	.
4A\	.	4a\	.	.	.	4cc\	.
4B-\	.	8g\	.	.	.	4dd\	.
.	.	8f\	.	.	.	.	.
4c\	.	4e\	.	2r	.	4g/	.
8B-\	.	4f\	.	.	.	4a/	.
8A\	.	.	.	.	.	.	.
4G\	.	2g\	.	2.d/	gau-	4b-/	.
4A\	.	.	.	.	.	4cc\	.
=16-	=16-	=16-	=16-	=16-	=16-	=16-	=16-
1B-	.	2f\	-dent	.	.	2.dd\	.
.	.	.	.	4e/	.	.	.
.	.	1d	om-	4f\	.	.	.
.	.	.	.	4g\	.	4ee\	.
1F	-dent	.	.	1a	.	2ff\	.
.	.	2A/	-nes	.	.	2cc\	-dent
*	*Xij	*	*	*	*	*	*Xij
=17-	=17-	=17-	=17-	=17-	=17-	=17-	=17-
!	!	!	!LO:SIC:s=San-	!	!	!	!
1D	om-	2.f\	ſan-	1a	-dent	2r	.
.	.	.	.	.	.	1dd	om-
.	.	4g\	.	.	.	.	.
1D	-nes	4a\	.	1.f	om-	.	.
.	.	4g\	.	.	.	.	.
.	.	4f\	.	.	.	2a/	-nes
.	.	4e\	.	.	.	.	.
=18-	=18-	=18-	=18-	=18-	=18-	=18-	=18-
!	!LO:SIC:s=San-	!	!	!	!	!LO:N:acc=#	!LO:SIC:s=San-
0G	ſan-	4d\	.	.	.	2bn/	ſan-
*	*	*custos:e	*	*	*	*	*
*	*	*xywh-#326:970,2128,3496,891	*	*	*	*	*
!	!	!LO:LB:g=original	!	!	!	!	!
.	.	8e\	.	.	.	.	.
.	.	8f\	.	.	.	.	.
.	.	2.g\	.	2e/	-nes	2.cc\	.
!	!	!	!	!	!LO:SIC:s=San-	!	!
.	.	.	.	1d	ſan-	.	.
!	!	!	!	!	!	!LO:SIC:s=8bi	!
.	.	8f\	.	.	.	8b-y	.
.	.	8e\	.	.	.	8a/	.
!	!	!	!	!	!	!LO:N:acc=#	!
.	.	2d\	.	.	.	2bn/	.
*	*	*	*	*	*	*custos:cc	*
!	!	!	!	!	!	!LO:LB:g=original	!
=19-	=19-	=19-	=19-	=19-	=19-	=19-	=19-
*	*	*	*	*	*	*xywh-#630:1064,2197,3439,807	*
0C	-cti	1e	-cti	1c	-cti	00cc	-cti
.	.	2r	.	2r	.	.	.
.	.	2c/	a-	2e/	a-	.	.
=20-	=20-	=20-	=20-	=20-	=20-	=20-	=20-
0r	.	1f	-mi-	1a	-mi-	.	.
.	.	2e\	-cti	2g\	-cti	.	.
*	*	*	*	*custos:a	*	*	*
*	*	*	*	*xywh-#478:943,2319,3472,721	*	*	*
!	!	!	!	!LO:LB:g=original	!	!	!
.	.	1f\	ſto-	1a\	ſto-	.	.
=21-	=21-	=21-	=21-	=21-	=21-	=21-	=21-
1F	ſe-	.	.	.	.	0r	.
.	.	2e\	-lis	2cc\	-lis	.	.
1G	-quun-	1d	al-	4b-\	al-	.	.
.	.	.	.	4a\	.	.	.
.	.	.	.	4g\	.	.	.
.	.	.	.	4f\	.	.	.
=22-	=22-	=22-	=22-	=22-	=22-	=22-	=22-
1A	-tur	1c	bis	2e/	.	1cc	ſe-
.	.	.	.	1f	-bis	.	.
!	!LO:SIC:s=A-	!	!	!	!	!	!
1B-	a-	1r	.	.	.	1dd	-quun-
.	.	.	.	1g\	ſe-	.	.
=23-	=23-	=23-	=23-	=23-	=23-	=23-	=23-
1c	-gnum	2r	.	.	.	1ee	-tur
.	.	2c/	ſe-	1a	-quun-	.	.
*custos:C	*	*	*	*	*	*	*
*xywh-#174:1036,2350,3465,675	*	*	*	*	*	*	*
!LO:LB:g=original	!	!	!	!	!	!	!LO:SIC:s=A-
1r	.	1d	-quun-	.	.	1ff	a-
.	.	.	.	2b-\	-tur	.	.
=24-	=24-	=24-	=24-	=24-	=24-	=24-	=24-
!	!	!	!	!	!LO:SIC:s=A-	!	!
2r	.	1e	-tur	1g	a-	1gg	-gnum
2C/	a-	.	.	.	.	.	.
!	!	!	!LO:SIC:s=A-	!	!	!	!
1F	-mi-	1f	a-	1a	-gnum	2r	.
.	.	.	.	.	.	2cc\	a-
=25-	=25-	=25-	=25-	=25-	=25-	=25-	=25-
2Eny/	-cti	2g\	-gnum	1r	.	1cc	-mi-
*	*	*	*ij	*	*	*	*
1F	ſto-	2c/	ſe-	.	.	.	.
.	.	2d\	-quun-	2r	.	2a/	-cti
2E/	-lis	2e\	-tur	2c/	ſe-	1cc\	ſto-
*	*	*custos:f	*	*	*	*	*
!	!	!LO:LB:g=original	!	!	!	!	!
=26-	=26-	=26-	=26-	=26-	=26-	=26-	=26-
*	*	*xywh-#326:985,2736,3473,814	*	*	*	*	*
!	!	!	!LO:SIC:s=A-	!	!	!	!
1D	al-	1f	a-	1d	-quun-	.	.
!	!	!	!	!	!	!LO:N:acc=#	!
.	.	.	.	.	.	2bn/	-lis
2C/	-bis	1g	-gnum	1e	-tur	2cc\	al-
2c\	ſe-	.	.	.	.	2g/	-bis
*	*	*	*Xij	*	*	*	*
=27-	=27-	=27-	=27-	=27-	=27-	=27-	=27-
!	!	!	!	!	!LO:SIC:s=A-	!	!
2B-\	-quun-	2r	.	1f	a-	2r	.
2A\	-tur	2c/	ſe-	.	.	2f/	a-
!	!LO:SIC:s=A-	!	!	!	!	!	!
1G	a-	2d\	-quun-	1g	-gnum	1b-y	-mi-
.	.	2e\	-tur	.	.	.	.
=28-	=28-	=28-	=28-	=28-	=28-	=28-	=28-
!	!	!	!LO:SIC:s=A-	!	!	!	!
1F	-gnum	1f	a-	2r	.	2a/	-cti
*	*	*	*	*	*ij	*	*
.	.	.	.	2a\	ſe-	1ff	ſto-
*	*	*	*	*custos:b	*	*	*
*	*	*	*	*xywh-#478:990,2884,3440,721	*	*	*
!	!	!	!	!LO:LB:g=original	!	!	!
!	!	!	!	!LO:N:acc=#	!	!	!
1r	.	0.g	-gnum	2bn\	-quun-	.	.
.	.	.	.	1cc\	-tur	2ee\	-lis
=29-	=29-	=29-	=29-	=29-	=29-	=29-	=29-
1G	a-	.	.	.	.	1dd	al-
!	!	!	!	!LO:N:acc=#	!LO:SIC:s=A-	!	!
.	.	.	.	2bn\	a-	.	.
1c	-mi-	.	.	2cc\	-gnum	1ee	-bis
*	*	*	*	*	*Xij	*	*
.	.	.	.	2c/	a-	.	.
=30-	=30-	=30-	=30-	=30-	=30-	=30-	=30-
!LO:N:acc=#	!	!	!	!	!	!	!
2Bn\	-cti	0r	.	1g	-mi-	1r	.
1c	ſto-	.	.	.	.	.	.
*	*	*	*	*	*	*	*ij
.	.	.	.	2e/	-cti	1g	a-
!LO:SIC:s=2B-i	!	!	!	!	!	!	!
2B-y\	-lis	.	.	1g\	ſto-	.	.
*custos:A	*	*	*	*	*	*	*
!LO:LB:g=original	!	!	!	!	!	!	!
=31-	=31-	=31-	=31-	=31-	=31-	=31-	=31-
*xywh-#174:1106,2900,3410,668	*	*	*	*	*	*	*
1A	al-	1c	a-	.	.	1cc	-mi-
.	.	.	.	2f\	-lis	.	.
*	*	*	*	*	*	*custos:b	*
*	*	*	*	*	*	*xywh-#630:1072,2826,3447,722	*
!	!	!	!	!	!	!LO:LB:g=original	!
!	!	!	!	!	!	!LO:N:acc=#	!
2G\	-bis	1g	-mi-	2d/	al-	2bn/	-cti
2C/	ſe-	.	.	2e-X/	.	1cc\	ſto-
=32-	=32-	=32-	=32-	=32-	=32-	=32-	=32-
0D	-quun-	2f#X\	-cti	0d	-bis	.	.
.	.	1g	ſto-	.	.	2b-y/	-lis
.	.	.	.	.	.	1a	al-
!	!	!LO:SIC:s=2fi	!	!	!	!	!
.	.	2fny\	-lis	.	.	.	.
=33-	=33-	=33-	=33-	=33-	=33-	=33-	=33-
1E	-tur	2.e\	al-	2r	.	2g/	-bis
*	*	*	*	*	*	*	*Xij
.	.	.	.	2g\	ſe-	2cc\	ſe-
.	.	8d\	.	.	.	.	.
.	.	8c\	.	.	.	.	.
!	!LO:SIC:s=A-	!	!	!	!	!	!
1F	a-	4d\	.	2f\	-quun-	2a/	-quun-
.	.	4c/	.	.	.	.	.
.	.	1c\	.	2eny/	-tur	2a/	-tur
=34-	=34-	=34-	=34-	=34-	=34-	=34-	=34-
!	!	!	!	!	!LO:SIC:s=A-	!	!LO:SIC:s=A-
1G	-gnum	.	.	1d	a-	1g	a-
!	!	!LO:N:acc=#	!	!	!	!	!
.	.	2Bn/	.	.	.	.	.
!	!	!	!	!	!	!	!LO:SIC:s=-gnum
2E/	quo-	1c	-bis	2e/	-gnum	2g/	-gnu(m)
!	!LO:SIC:s=-cum-	!	!	!	!	!	!
1F\	-cun-	.	.	2c/	quo-	2a/	quo-
=35-	=35-	=35-	=35-	=35-	=35-	=35-	=35-
!	!	!	!	!	!LO:SIC:s=-cum-	!	!LO:SIC:s=-cum-
.	.	2r	.	2f\	-cun-	2a/	-cun-
*	*	*	*	*custos:e	*	*	*
*	*	*	*	*xywh-#478:951,3393,3448,728	*	*	*
!	!	!	!	!LO:LB:g=original	!	!	!
2A\	-que	2c/	ſe-	2e/	-que	2cc\	-que
*	*	*custos:d	*	*	*	*	*
*	*	*xywh-#326:985,3273,3473,837	*	*	*	*	*
!	!	!LO:LB:g=original	!	!	!	!LO:N:acc=#	!
2.G\	i-	1d	-quun-	2.g\	i-	2.bn/	i-
4G\	-e-	.	.	4g\	-e-	4b/	-e-
=36-	=36-	=36-	=36-	=36-	=36-	=36-	=36-
2C/	-rit	1e	-tur	1g	-rit	2cc\	-rit
2c\	ſe-	.	.	.	.	2g/	ſe-
!	!	!	!LO:SIC:s=A-	!	!	!	!
2B-\	-quun-	1f	a-	2r	.	2dd\	-quun-
2A\	-tur	.	.	2c/	ſe-	2cc\	-tur
=37-	=37-	=37-	=37-	=37-	=37-	=37-	=37-
!	!LO:SIC:s=A-	!	!LO:SIC:s=-gnum	!	!	!	!LO:SIC:s=A-
1G	a-	1g	-gnu(m)	2d/	-quun-	1b-y	a-
.	.	.	.	2e/	-tur	.	.
!	!LO:SIC:s=-gnum	!	!	!	!LO:SIC:s=A-	!	!LO:SIC:s=-gnum
1F	-gnu(m)	2r	.	1f	a-	2a/	-gnu(m)
.	.	1a\	quo-	.	.	1cc\	quo-
=38-	=38-	=38-	=38-	=38-	=38-	=38-	=38-
!	!	!	!	!	!LO:SIC:s=-gnum	!	!
2A\	quo-	.	.	1f	-gnu(m)	.	.
*custos:B	*	*	*	*	*ij	*	*
*xywh-#174:1083,3442,3458,691	*	*	*	*	*	*	*
!LO:LB:g=original	!LO:SIC:s=-cum-	!	!LO:SIC:s=-cum-	!	!	!	!LO:SIC:s=-cum-
1B-	-cun-	2f\	-cun-	.	.	1dd	-cun-
.	.	2d\	-que	1f	ſe-	.	.
2d\	-que	1f\	i-	.	.	2a/	-que
*	*	*	*	*	*	*custos:cc	*
!	!	!	!	!	!	!LO:LB:g=original	!
=39-	=39-	=39-	=39-	=39-	=39-	=39-	=39-
*	*	*	*	*	*	*xywh-#630:1041,3369,3447,753	*
2.c\	i-	.	.	1g	-quun-	2.cc\	i-
.	.	2e\	-e-	.	.	.	.
4c\	-e-	.	.	.	.	4cc\	-e-
2F/	-rit	2f\	-rit	1a	-tur	4cc\	-rit
.	.	.	.	.	.	4b-/	.
2F/	a-	2c/	ſe-	.	.	4a/	.
.	.	.	.	.	.	4g/	.
=40-	=40-	=40-	=40-	=40-	=40-	=40-	=40-
!	!	!	!	!	!LO:SIC:s=A-	!	!
1B-	-mi-	1d	-quun-	1b-y	a-	2.f/	.
.	.	.	.	.	.	4g/	.
!	!	!	!	!	!LO:SIC:s=-gnum	!	!
2A\	-cti	2e\	-tur	2cc\	-gnu(m)	1a	.
!	!	!	!LO:SIC:s=A-	!	!	!	!
1F\	ſto-	2f\	a-	2c/	ſe-	.	.
=41-	=41-	=41-	=41-	=41-	=41-	=41-	=41-
.	.	1g	-gnum	2d/	-quun-	2r	.
2E/	-lis	.	.	2e/	-tur	2cc\	ſe-
!	!	!	!	!	!LO:SIC:s=A-	!	!
1D	al-	2r	.	1f	a-	1dd	-quun-
.	.	2A/	a-	.	.	.	.
=42-	=42-	=42-	=42-	=42-	=42-	=42-	=42-
!	!	!	!	!	!LO:SIC:s=-gnum	!	!
2C/	-bis	1c	-mi-	1g	-gnu(m)	1ee	-tur
2c\	ſe-	.	.	.	.	.	.
!	!	!	!	!	!	!	!LO:SIC:s=A-
2B-\	-quun-	2d\	-cti	1r	.	1ff	a-
2A\	-tur	1f\	ſto-	.	.	.	.
*	*	*	*	*custos:g	*Xij	*	*
!	!	!	!	!LO:LB:g=original	!	!	!
=43-	=43-	=43-	=43-	=43-	=43-	=43-	=43-
!	!LO:SIC:s=A-	!	!	!	!	!	!
1G	a-	.	.	2r	.	1gg	-gnum
*	*	*custos:e	*	*	*	*	*
*	*	*xywh-#326:1008,3827,3442,806	*	*xywh-#478:935,3942,3464,760	*	*	*
!	!	!LO:LB:g=original	!	!	!	!	!
.	.	2e\	-lis	2g\	a-	.	.
1F	-gnum	1a	al-	1cc	-mi-	2r	.
.	.	.	.	.	.	2cc\	quo-
=44-	=44-	=44-	=44-	=44-	=44-	=44-	=44-
!	!	!	!	!LO:N:acc=#	!	!	!LO:SIC:s=-cum-
1r	.	0g	-bis	2bn\	-cti	2dd\	-cun-
.	.	.	.	1cc	ſto-	2ee\	-que
1G	a-	.	.	.	.	2.dd\	i-
!	!	!	!	!LO:SIC:s=2b-i	!	!	!
.	.	.	.	2b-y\	-lis	.	.
.	.	.	.	.	.	4dd\	-e-
*custos:c	*	*	*	*	*	*	*
!LO:LB:g=original	!	!	!	!	!	!	!
=45-	=45-	=45-	=45-	=45-	=45-	=45-	=45-
*xywh-#174:1106,3977,3426,699	*	*	*	*	*	*	*
1c	-mi-	2e\	ſe-	1a	al-	1cc	-rit
.	.	1f	-quun-	.	.	.	.
!LO:N:acc=#	!	!	!	!	!	!	!
2Bn\	-cti	.	.	0g	-bis	1r	.
1c\	ſto-	2e\	-tur	.	.	.	.
=46-	=46-	=46-	=46-	=46-	=46-	=46-	=46-
!	!	!	!LO:SIC:s=A-	!	!	!	!
.	.	1d	a-	.	.	2r	.
2B-y\	-lis	.	.	.	.	2dd\	ſe-
!	!	!	!LO:SIC:s=-gnum	!	!	!	!
1A	al-	2c/	-gnu(m)	2r	.	2ee\	-quun-
*	*	*	*	*	*	*custos:ff	*
*	*	*	*	*	*	*xywh-#630:1041,3920,3439,706	*
!	!	!	!	!	!	!LO:LB:g=original	!
.	.	2A/	quo-	2c/	ſe-	2ff\	-tur
=47-	=47-	=47-	=47-	=47-	=47-	=47-	=47-
!	!	!	!LO:SIC:s=-cum-	!	!	!	!LO:SIC:s=A-
1G	-bis	1B-y	-cun-	2d/	-quun-	2.gg\	a-
.	.	.	.	2e/	-tur	.	.
.	.	.	.	.	.	8ff\	.
.	.	.	.	.	.	8ee\	.
!	!	!	!	!	!LO:SIC:s=A-	!	!
1r	.	1d	-que	1f	a-	4dd\	.
.	.	.	.	.	.	4ee\	.
.	.	.	.	.	.	4ff\	.
.	.	.	.	.	.	4dd\	.
=48-	=48-	=48-	=48-	=48-	=48-	=48-	=48-
1C	ſe-	2.c/	i-	2g\	-gnum	1ee	.
.	.	.	.	2e/	quo-	.	.
.	.	4c/	-e-	.	.	.	.
!	!	!	!	!	!LO:SIC:s=-cum-	!	!LO:SIC:s=-gnum
1D	-quun-	1F	-rit	2f\	-cun-	2a/	-gnu(m)
.	.	.	.	2a\	-que	2ff\	ſe-
=49-	=49-	=49-	=49-	=49-	=49-	=49-	=49-
1E	-tur	2r	.	2.g\	i-	4ee\	-quun-
.	.	.	.	.	.	4dd\	.
.	.	2g\	quo-	.	.	4cc\	.
.	.	.	.	4g\	-e-	4b-/	.
!	!LO:SIC:s=A-	!	!LO:SIC:s=-cum-	!	!	!	!
1F	a-	2f\	-cun-	1c	-rit	4a/	.
.	.	.	.	.	.	4b-/	.
.	.	2a\	-que	.	.	1cc\	.
=50-	=50-	=50-	=50-	=50-	=50-	=50-	=50-
1G	-gnum	2.g\	i-	2r	.	.	.
!	!	!	!	!	!	!LO:N:acc=#	!
.	.	.	.	1g	quo-	2bn/	-tur
.	.	4g\	-e-	.	.	.	.
*	*	*custos:c	*	*	*	*	*
*	*	*xywh-#326:939,4395,3488,845	*	*	*	*	*
!	!	!LO:LB:g=original	!	!	!	!	!LO:SIC:s=A-
2E/	quo-	1c	-rit	.	.	1cc	a-
*	*	*	*	*custos:a	*	*	*
*	*	*	*	*xywh-#478:966,4498,3425,689	*	*	*
!	!LO:SIC:s=-cum-	!	!	!LO:LB:g=original	!LO:SIC:s=-cum-	!	!
1F\	-cun-	.	.	1a\	-cun-	.	.
=51-	=51-	=51-	=51-	=51-	=51-	=51-	=51-
!	!	!	!	!	!	!	!LO:SIC:s=-gnum
.	.	1A	quo-	.	.	2cc\	-gnu(m)
2A\	-que	.	.	2e/	-que	2cc\	quo-
!	!	!	!LO:SIC:s=-cum-	!	!	!	!LO:SIC:s=-cum-
2.G\	i-	2B-/	-cun-	2.g\	i-	2dd\	-cun-
*	*	*	*	*	*	*custos:b	*
*	*	*	*	*	*	*xywh-#630:1072,4495,3392,706	*
!	!	!	!	!	!	!LO:LB:g=original	!
!	!	!	!	!	!	!LO:N:acc=#	!
.	.	2d\	-que	.	.	2bn/	-que
4G\	-e-	.	.	4g\	-e-	.	.
=52-	=52-	=52-	=52-	=52-	=52-	=52-	=52-
1C	-rit	2.c/	i-	1e	-rit	4cc\	i-
!	!	!	!	!	!	!LO:SIC:s=4b-i	!
.	.	.	.	.	.	4b-y/	.
.	.	.	.	.	.	4a/	.
.	.	4c/	-e-	.	.	4g/	.
*	*	*	*	*	*ij	*	*
2AA/	quo-	1F	-rit	2c/	quo-	4a/	.
.	.	.	.	.	.	4g/	.
*custos:BB	*	*	*	*	*	*	*
*xywh-#174:1067,4550,3450,613	*	*	*	*	*	*	*
!LO:LB:g=original	!LO:SIC:s=-cum-	!	!	!	!LO:SIC:s=-cum-	!	!
1BB-/	-cun-	.	.	1d/	-cun-	4f/	.
.	.	.	.	.	.	4e/	.
=53-	=53-	=53-	=53-	=53-	=53-	=53-	=53-
.	.	1F	quo-	.	.	4d/	.
.	.	.	.	.	.	4e/	.
2D/	-que	.	.	2A/	-que	4f/	.
.	.	.	.	.	.	4d/	.
!	!	!	!LO:SIC:s=-cum-	!	!	!	!
1C	i-	2G/	-cun-	1c	i-	2e/	.
.	.	2A/	-que	.	.	1f/	.
=54-	=54-	=54-	=54-	=54-	=54-	=54-	=54-
1C	-e-	2.G/	i-	1c	-e-	.	.
.	.	.	.	.	.	2e/	-e-
.	.	4G/	-e-	.	.	.	.
!LO:MO:null:mod=!LO&colon;N&colon;vis=0	!	!LO:MO:null:mod=!LO&colon;N&colon;vis=0	!	!LO:MO:null:mod=!LO&colon;N&colon;vis=0	!	!LO:MO:null:mod=!LO&colon;N&colon;vis=0	!
!null	!	!null	!	!null	!LO:SIC:s=-rit.	!null	!
1Fl	-rit.	1Fl	-rit.	1cl	-rit	1fl	-rit.
==	==	==	==	==	==	==	==
*-	*-	*-	*-	*-	*-	*-	*-
!!!system-decoration: [*]
!!LO:MO:ori
!!!RDF**kern: l = terminal long
!!LO:MO:mod
!! !!!RDF**kern: i = editorial accidental
!!LO:MO:end
!!!filter-modern: shed -e "s/^custos:/Xcustos:/I" | shed -e "s/LO:N:/LO:n:$1/L" | shed -e "s/TX(.*):t=P:/tx$1:t=P:/LG" | sic -sq | modori -m | autostem -r | tie -s | humtr -p | shed -e "s/-//B" | autobeam
!!!ENC: Filip Voros
!!!END: 2022-07-04
!!!EED: Andrzej Kubiczek
!!!EEV: 2025-02-25
!!!ENC-modern: Andrzej Kubiczek
!!!END-modern: 2025-02-25
!!!ENC-iiif: Lidia Bialucha
!!!END-iiif: 2022-09-11
